X:7506
T: There's Nae Luck Aboot the Hoose
O:england
R: hornpipe
B: RSCDS __-19(a)
N: Johnson's Museum 1788, adapted from earlier tune "Up and war a' Willie" published by Oswald 1750.
M: 4/4
L: 1/8
K: G
d \
| "G"g>e "G7"d<B "C"c>d e>f | "G"g>d "(C)"d<B "D7"A3 d \
| "G"g>e "G7"d<B "C"c>d e>g | "G"d>c "D7"B<A "G"G3 :|
|: G/A/ \
| "G"B>B B<G "C"c>c c>A | "G"B>B B<G "D7"A3 G/A/ \
| "G"B>B B<G "C"c>d e>g | "G"d>c "D7"B<A "G"G3 :|


